src/main/resources/icons/GradleIcons/icons/toolWindowGradle_dark.svg

<svg xmlns="http://www.w3.org/2000/svg" width="13" height="13" viewBox="0 0 13 13">
  <path fill="#AFB1B3" fill-rule="evenodd" d="M12.2931893,1.90399879 C11.5073937,1.11812531 10.2401494,1.09639747 9.42787487,1.85487086 C9.38829383,1.89251241 9.3658869,1.94474294 9.3658869,1.99936478 C9.3658869,2.05398662 9.38829383,2.10621715 9.42787487,2.1438587 L9.67640441,2.398168 C9.74584019,2.46722794 9.85552679,2.47462254 9.93360359,2.41550727 C10.4288221,2.0199403 11.1479023,2.08539191 11.5635642,2.56386839 C11.9792261,3.04234487 11.9434981,3.76351327 11.4825784,4.19856225 C9.8454623,5.83423343 7.66071422,1.24799639 2.70168287,3.61191693 C2.53247008,3.69319724 2.40497654,3.84156045 2.35007893,4.02107566 C2.29518131,4.20059086 2.31788626,4.39488633 2.41269503,4.55690717 L3.26376422,6.02641034 C3.44717836,6.34543852 3.85345705,6.45700394 4.17407592,6.27638483 L4.19430507,6.26482531 L4.17841074,6.27638483 L4.55120505,6.06831358 C4.97155336,5.80732935 5.36890346,5.51100865 5.73894508,5.18256585 C5.81461196,5.11358821 5.92921564,5.10991109 6.00914871,5.17389621 L6.00914871,5.17389621 C6.05146232,5.20938211 6.07660978,5.2612475 6.07826576,5.31644667 C6.07992173,5.37164583 6.05792862,5.42492544 6.01781834,5.46288405 C5.62834361,5.81371101 5.20864386,6.12945287 4.76361111,6.40642936 L4.75060666,6.40642936 L4.37347753,6.61739048 C4.21420142,6.70683073 4.03452433,6.75361645 3.85185448,6.75321476 C3.46677787,6.75459828 3.1102912,6.5501832 2.91697881,6.21714232 L2.11214767,4.82855574 C0.57328742,5.92381966 -0.37170282,8.02765114 0.139805659,10.692119 C0.157125946,10.7847424 0.237754938,10.8520342 0.331982573,10.8525073 L1.23940439,10.8525073 C1.34316578,10.8551987 1.43112735,10.7767294 1.44025094,10.6733348 C1.52843626,10.0057214 2.09762753,9.50677075 2.77103995,9.50677075 C3.44445237,9.50677075 4.01364364,10.0057214 4.10182896,10.6733348 C4.11353423,10.771402 4.19668756,10.8452471 4.29545081,10.8452826 L5.18264348,10.8452826 C5.2811619,10.8446062 5.36395257,10.7710831 5.37626534,10.6733348 C5.46445065,10.0057214 6.03364193,9.50677075 6.70705434,9.50677075 C7.38046676,9.50677075 7.94965804,10.0057214 8.03784335,10.6733348 C8.05015612,10.7710831 8.13294679,10.8446062 8.23146521,10.8452826 L9.11287812,10.8452826 C9.22028993,10.8452942 9.30781027,10.7590609 9.30938985,10.6516607 C9.329619,9.40901302 9.6648449,7.98141309 10.6199497,7.26616818 C13.9288605,4.79098732 13.0590071,2.66981657 12.2931893,1.90399879 Z M8.91925627,5.64205652 L8.28781783,5.32561483 L8.28781783,5.32561483 C8.28765242,5.13907344 8.41772305,4.97772261 8.60005015,4.93829491 C8.78237725,4.89886721 8.96749221,4.9920601 9.04441543,5.16200283 C9.12133866,5.33194557 9.0691995,5.53252964 8.91925627,5.64350145 L8.91925627,5.64205652 Z"/>
</svg>

<svg xmlns="http://www.w3.org/2000/svg" width="13" height="13" viewBox="0 0 13 13"><rect id="frame" width="13" height="13" fill="none"/><path fill="#AFB1B3" fill-rule="evenodd" d="M12.293 1.904a2.062 2.062 0 0 0-2.865-.05.2.2 0 0 0 0 .29l.248.254c.07.07.18.077.258.018a1.182 1.182 0 0 1 1.549 1.783C9.845 5.834 7.66 1.248 2.702 3.612a.672.672 0 0 0-.29.945l.852 1.47a.67.67 0 0 0 .91.25l.02-.012-.016.011.373-.208c.42-.26.818-.557 1.188-.885a.208.208 0 0 1 .27-.01.194.194 0 0 1 .009.29c-.39.35-.81.666-1.254.943H4.75l-.378.211a1.076 1.076 0 0 1-1.456-.4L2.112 4.83C.573 5.924-.372 8.028.14 10.692c.017.093.098.16.192.16h.907a.197.197 0 0 0 .201-.179 1.342 1.342 0 0 1 2.662 0 .195.195 0 0 0 .193.172h.888a.197.197 0 0 0 .193-.172 1.342 1.342 0 0 1 2.662 0 .197.197 0 0 0 .193.172h.882a.197.197 0 0 0 .196-.193c.02-1.243.356-2.67 1.31-3.386 3.31-2.475 2.44-4.596 1.674-5.362zM8.92 5.642l-.631-.316a.396.396 0 1 1 .631.318v-.002z"/></svg>
